luts/Solène by alexg/Solène by alexg.cube
LUT_3D_SIZE 6
0.008301 0.014038 0.013947
0.065887 0.017914 0.010278
0.300049 0.082428 0.007526
0.501654 0.149518 0.007702
0.599201 0.181134 0.008429
0.659349 0.200265 0.008910
0.029798 0.055395 0.042762
0.066083 0.067204 0.038514
0.252443 0.097510 0.011778
0.468281 0.151755 0.008559
0.589220 0.188143 0.008241
0.661559 0.209900 0.008332
0.057806 0.160016 0.120502
0.096468 0.183801 0.128030
0.276221 0.233866 0.098936
0.517678 0.269937 0.005906
0.625695 0.255990 0.006299
0.691104 0.247557 0.006856
0.124567 0.365582 0.285444
0.163958 0.386165 0.289321
0.281694 0.404249 0.271277
0.565529 0.457263 0.145041
0.722792 0.473030 0.000019
0.792403 0.446876 0.000195
0.216156 0.567304 0.442682
0.248312 0.576337 0.439065
0.337859 0.585041 0.405637
0.489959 0.580350 0.393647
0.740154 0.608102 0.218639
0.863518 0.610784 0.000000
0.280818 0.720858 0.564440
0.294280 0.722818 0.561611
0.366461 0.729706 0.537231
0.472522 0.738258 0.506486
0.635562 0.735049 0.507204
0.914007 0.765708 0.324412
0.014898 0.042524 0.051941
0.051908 0.037367 0.050209
0.301974 0.052041 0.025832
0.505113 0.137871 0.017753
0.602329 0.177109 0.021783
0.658680 0.197462 0.023785
0.021444 0.090153 0.092220
0.071960 0.086220 0.086356
0.259957 0.092576 0.051809
0.474787 0.144457 0.033404
0.593745 0.183751 0.021135
0.664725 0.206836 0.018497
0.017970 0.227813 0.197145
0.107280 0.211309 0.162078
0.315182 0.258399 0.120170
0.533578 0.264125 0.025313
0.634249 0.252724 0.016690
0.692500 0.242304 0.015634
0.069696 0.413905 0.339060
0.168195 0.401828 0.306317
0.304738 0.426016 0.289219
0.600461 0.478257 0.150095
0.731330 0.473649 0.000097
0.792840 0.439780 0.001402
0.150622 0.571935 0.464325
0.245027 0.580357 0.445802
0.342573 0.592899 0.413320
0.512508 0.596901 0.407359
0.767097 0.627889 0.224051
0.873654 0.612549 0.000351
0.213009 0.714896 0.580858
0.285844 0.725105 0.567333
0.358764 0.736164 0.549030
0.472815 0.749857 0.517249
0.647919 0.752319 0.520579
0.931927 0.792060 0.369796
0.051123 0.117926 0.162396
0.067267 0.108831 0.152271
0.225127 0.139328 0.196526
0.525675 0.097871 0.158753
0.643355 0.114754 0.079713
0.679523 0.170925 0.038154
0.056361 0.174988 0.226042
0.084270 0.163873 0.211923
0.230850 0.169106 0.219354
0.514740 0.114893 0.159770
0.641962 0.133083 0.087287
0.685522 0.185755 0.057650
0.017997 0.306557 0.323931
0.062081 0.321640 0.333512
0.314003 0.321941 0.318704
0.527700 0.299754 0.251103
0.637321 0.269520 0.187173
0.701901 0.243660 0.120326
0.000000 0.466017 0.428358
0.021143 0.503205 0.453345
0.320087 0.478151 0.365403
0.603681 0.521484 0.338507
0.753962 0.498536 0.210005
0.832793 0.459295 0.121536
0.000000 0.608880 0.543692
0.115002 0.623825 0.524765
0.340310 0.612991 0.446792
0.527597 0.633571 0.448746
0.780858 0.665642 0.364897
0.921777 0.646518 0.141021
0.020283 0.756015 0.651748
0.224095 0.747089 0.618172
0.345165 0.749299 0.574061
0.471776 0.772233 0.543218
0.655886 0.786197 0.557189
0.930135 0.827586 0.530211
0.106927 0.206213 0.275964
0.117602 0.198004 0.265841
0.205513 0.227013 0.319012
0.371759 0.255558 0.349868
0.529264 0.250288 0.349407
0.656679 0.205337 0.311486
0.122986 0.277450 0.361438
0.141491 0.270021 0.350598
0.237749 0.276948 0.366195
0.387698 0.283320 0.377004
0.539011 0.260169 0.357175
0.676823 0.212092 0.314796
0.099804 0.413465 0.493836
0.127749 0.421089 0.501998
0.314880 0.429388 0.499646
0.481559 0.418296 0.483798
0.622860 0.361050 0.428980
0.731669 0.268784 0.347932
0.011120 0.542730 0.579956
0.037686 0.565066 0.597164
0.327808 0.585374 0.600568
0.566605 0.579448 0.579717
0.699623 0.566934 0.545001
0.792542 0.543622 0.488783
0.000000 0.633023 0.610347
0.021904 0.684525 0.655870
0.355388 0.718660 0.683242
0.549640 0.699159 0.631181
0.740306 0.710842 0.611041
0.873501 0.696641 0.526606
0.000000 0.765280 0.725966
0.048859 0.823653 0.775270
0.429995 0.843728 0.775397
0.544266 0.837567 0.741177
0.673518 0.846018 0.727319
0.914369 0.870064 0.758527
0.147248 0.276477 0.364899
0.180227 0.284098 0.371443
0.255147 0.301238 0.411709
0.347584 0.314723 0.426545
0.448730 0.328679 0.444966
0.511186 0.335562 0.456059
0.166839 0.361791 0.467352
0.192369 0.360202 0.462755
0.308655 0.380606 0.487037
0.377399 0.365131 0.483747
0.465074 0.352062 0.467594
0.533632 0.352858 0.473762
0.154525 0.490119 0.598947
0.188013 0.497247 0.607279
0.357430 0.514197 0.613582
0.478201 0.513036 0.611849
0.557745 0.484953 0.583053
0.604485 0.422383 0.534164
0.087893 0.611614 0.697167
0.145209 0.622536 0.708409
0.360868 0.639651 0.717185
0.554730 0.647099 0.708028
0.657616 0.640193 0.693865
0.770561 0.622542 0.667037
0.010745 0.689477 0.741323
0.060920 0.717921 0.770595
0.369338 0.745348 0.781340
0.584584 0.754439 0.776361
0.715956 0.746687 0.755317
0.844856 0.746498 0.731015
0.000073 0.771313 0.768590
0.105628 0.831031 0.822917
0.466065 0.862699 0.850404
0.619337 0.893762 0.879261
0.716444 0.924803 0.892479
0.936131 0.924333 0.867298
0.180950 0.340112 0.444305
0.272554 0.391378 0.496762
0.351628 0.407251 0.536938
0.361498 0.367607 0.504097
0.416194 0.370788 0.497534
0.480279 0.379712 0.505290
0.198934 0.448347 0.573302
0.243140 0.453288 0.574277
0.373196 0.474323 0.589994
0.413566 0.450242 0.589318
0.450598 0.418678 0.550709
0.501559 0.405751 0.532952
0.188397 0.551632 0.678445
0.247540 0.566231 0.694748
0.394803 0.587773 0.707196
0.499797 0.592693 0.714004
0.558559 0.577967 0.706928
0.588628 0.522226 0.644921
0.149527 0.652977 0.765834
0.228180 0.669593 0.784725
0.394963 0.694531 0.810359
0.525104 0.719517 0.842840
0.638095 0.715541 0.833578
0.725198 0.704527 0.813195
0.096710 0.730161 0.824839
0.188771 0.755525 0.851002
0.402528 0.801347 0.896509
0.532056 0.830182 0.934335
0.676173 0.824338 0.922069
0.800171 0.811537 0.893563
0.053478 0.806358 0.874141
0.149565 0.830181 0.895256
0.454006 0.893240 0.951758
0.656946 0.934084 0.978455
0.789692 0.966905 0.999986
0.947373 0.988530 0.996689
