luts/Solène by alexg/Solène by alexg.cube
LUT_3D_SIZE 16
0.008301 0.014038 0.013947
0.019076 0.013572 0.012578
0.034849 0.014559 0.011757
0.065887 0.017914 0.010278
0.129504 0.029388 0.008763
0.209920 0.052267 0.007945
0.300049 0.082428 0.007526
0.382607 0.110307 0.007338
0.448633 0.132200 0.007479
0.501654 0.149518 0.007702
0.541555 0.162374 0.007935
0.572658 0.172492 0.008085
0.599201 0.181134 0.008429
0.622905 0.188580 0.008541
0.643768 0.195463 0.008688
0.659349 0.200265 0.008910
0.016156 0.027881 0.024762
0.021872 0.028152 0.023032
0.038321 0.027920 0.018461
0.061358 0.029999 0.016677
0.113973 0.035727 0.011055
0.188099 0.052397 0.009523
0.276552 0.079545 0.008595
0.359253 0.106302 0.008268
0.429069 0.128951 0.008231
0.488295 0.148038 0.008366
0.532708 0.162282 0.008516
0.565811 0.172723 0.008521
0.594217 0.181898 0.008820
0.619333 0.189629 0.008881
0.640980 0.196584 0.008869
0.656825 0.201736 0.009016
0.021753 0.042124 0.034654
0.029201 0.043711 0.033343
0.039660 0.045260 0.030540
0.065641 0.047515 0.024736
0.110580 0.051556 0.016242
0.174764 0.061935 0.011444
0.257131 0.082256 0.009849
0.340282 0.105980 0.009085
0.411279 0.127509 0.008801
0.473514 0.146976 0.008780
0.523500 0.162737 0.008780
0.559920 0.174243 0.008583
0.590388 0.183820 0.008571
0.618306 0.192489 0.008512
0.642081 0.199912 0.008371
0.658712 0.205182 0.008472
0.029798 0.055395 0.042762
0.037329 0.058563 0.042377
0.047993 0.062323 0.041265
0.066083 0.067204 0.038514
0.115980 0.073498 0.027415
0.175993 0.081763 0.015167
0.252443 0.097510 0.011778
0.332556 0.116730 0.009961
0.404386 0.134382 0.008939
0.468281 0.151755 0.008559
0.519788 0.166907 0.008477
0.557671 0.178386 0.008323
0.589220 0.188143 0.008241
0.618311 0.196776 0.008247
0.643493 0.204538 0.008236
0.661559 0.209900 0.008332
0.038416 0.077889 0.057534
0.045604 0.082242 0.058345
0.056038 0.087709 0.059016
0.076944 0.095037 0.058246
0.111832 0.104456 0.054373
0.185446 0.117127 0.029474
0.264382 0.130361 0.013425
0.339455 0.144147 0.011047
0.407620 0.156284 0.009463
0.469225 0.167282 0.008873
0.520650 0.177448 0.008708
0.557925 0.185524 0.008534
0.589849 0.194336 0.008408
0.620086 0.202755 0.008344
0.646586 0.210686 0.008276
0.666443 0.216374 0.008315
0.045868 0.112264 0.084269
0.052753 0.117557 0.086465
0.065277 0.123671 0.087279
0.084377 0.130825 0.087201
0.120026 0.141929 0.082991
0.180084 0.158132 0.072584
0.282495 0.180035 0.022754
0.361768 0.192455 0.011134
0.428197 0.201502 0.009150
0.487699 0.208238 0.008221
0.536353 0.210785 0.007870
0.571390 0.209881 0.007785
0.599965 0.210594 0.007965
0.628599 0.215132 0.007881
0.654989 0.221693 0.007837
0.676219 0.227399 0.007671
0.057806 0.160016 0.120502
0.065851 0.167334 0.123852
0.077871 0.175383 0.126676
0.096468 0.183801 0.128030
0.126705 0.193387 0.127976
0.184302 0.210563 0.125026
0.276221 0.233866 0.098936
0.390690 0.259865 0.019100
0.460257 0.266404 0.006805
0.517678 0.269937 0.005906
0.564148 0.269299 0.006053
0.598376 0.263775 0.006178
0.625695 0.255990 0.006299
0.649429 0.248747 0.006521
0.670830 0.245135 0.007073
0.691104 0.247557 0.006856
0.074984 0.224621 0.171969
0.083168 0.232348 0.175894
0.095562 0.240255 0.178038
0.115312 0.248214 0.177263
0.142886 0.255863 0.174679
0.187576 0.265065 0.174745
0.267850 0.284364 0.168235
0.383687 0.313757 0.112011
0.496022 0.341105 0.017274
0.553276 0.343825 0.002046
0.598947 0.342991 0.002060
0.633382 0.337509 0.002721
0.661343 0.328199 0.003584
0.682623 0.314853 0.004301
0.700678 0.299015 0.004438
0.715613 0.288874 0.005114
0.096458 0.293062 0.227730
0.105606 0.300510 0.231236
0.118929 0.308105 0.233277
0.137352 0.315511 0.232679
0.164869 0.322599 0.227224
0.202854 0.329219 0.222257
0.266284 0.336956 0.223436
0.364443 0.356232 0.203507
0.483684 0.390069 0.123294
0.588019 0.418328 0.021829
0.629872 0.416220 0.001186
0.664786 0.411506 0.000050
0.695855 0.404480 0.000541
0.720468 0.394304 0.000828
0.739763 0.381525 0.001630
0.752932 0.365062 0.002155
0.124567 0.365582 0.285444
0.132802 0.372352 0.288844
0.144815 0.379256 0.290895
0.163958 0.386165 0.289321
0.190389 0.392773 0.283426
0.228058 0.398898 0.274713
0.281694 0.404249 0.271277
0.354500 0.409043 0.268891
0.452549 0.425138 0.235729
0.565529 0.457263 0.145041
0.662040 0.485380 0.035341
0.690535 0.478531 0.004057
0.722792 0.473030 0.000019
0.749913 0.465771 0.000021
0.774480 0.457609 0.000037
0.792403 0.446876 0.000195
0.154795 0.440074 0.344483
0.162686 0.445565 0.346938
0.175044 0.451207 0.347790
0.193349 0.456785 0.345961
0.220210 0.462158 0.339074
0.256049 0.467333 0.328366
0.301225 0.471885 0.320276
0.362525 0.474798 0.318354
0.435309 0.474338 0.310088
0.525008 0.484017 0.264632
0.630273 0.511756 0.165680
0.719554 0.540039 0.057425
0.745318 0.532054 0.011573
0.771757 0.525039 0.000021
0.800059 0.518634 0.000000
0.823135 0.512565 0.000000
0.186109 0.506905 0.396458
0.193395 0.510882 0.397637
0.205057 0.515099 0.397386
0.222686 0.519218 0.394365
0.248212 0.523193 0.386440
0.281138 0.527095 0.374468
0.320897 0.530502 0.363133
0.372606 0.531923 0.359011
0.432200 0.530387 0.357341
0.500146 0.525620 0.344519
0.582328 0.530397 0.287840
0.682806 0.557921 0.189673
0.774262 0.589428 0.083624
0.795221 0.579865 0.022423
0.819651 0.569743 0.000001
0.844853 0.564038 0.000000
0.216156 0.567304 0.442682
0.221782 0.570127 0.443372
0.231954 0.573222 0.442531
0.248312 0.576337 0.439065
0.270825 0.579492 0.432437
0.301402 0.582381 0.419265
0.337859 0.585041 0.405637
0.380296 0.585860 0.397717
0.432734 0.584928 0.395675
0.489959 0.580350 0.393647
0.557402 0.573958 0.374982
0.637945 0.577167 0.312902
0.740154 0.608102 0.218639
0.826701 0.635815 0.112841
0.843837 0.620797 0.030052
0.863518 0.610784 0.000000
0.242538 0.621173 0.483940
0.246321 0.622794 0.484170
0.254790 0.624793 0.483077
0.268993 0.626963 0.479616
0.289822 0.629234 0.472639
0.318182 0.631529 0.461175
0.350543 0.633927 0.447200
0.387152 0.635915 0.436142
0.432664 0.636011 0.430482
0.484914 0.634274 0.430110
0.545082 0.629702 0.429800
0.616150 0.624522 0.405053
0.698194 0.627458 0.338335
0.802586 0.657359 0.235359
0.877057 0.674151 0.124822
0.887499 0.657927 0.032601
0.261395 0.674691 0.527706
0.263102 0.675553 0.527905
0.269925 0.676927 0.526852
0.283043 0.678670 0.523684
0.302767 0.680728 0.517976
0.327898 0.682805 0.508635
0.359048 0.685243 0.494630
0.394407 0.687619 0.480249
0.431049 0.689077 0.472962
0.475654 0.689488 0.467765
0.527471 0.688267 0.466868
0.590538 0.682969 0.469070
0.663044 0.675998 0.443381
0.743130 0.674515 0.373502
0.863473 0.714051 0.276263
0.925446 0.722109 0.175763
0.280818 0.720858 0.564440
0.280281 0.720785 0.564544
0.284636 0.721460 0.563702
0.294280 0.722818 0.561611
0.310453 0.724620 0.557178
0.333042 0.726980 0.550430
0.366461 0.729706 0.537231
0.399513 0.732827 0.523394
0.434028 0.736085 0.512143
0.472522 0.738258 0.506486
0.516930 0.739930 0.503437
0.571793 0.740135 0.503116
0.635562 0.735049 0.507204
0.708546 0.728299 0.482958
0.806306 0.727829 0.398896
0.914007 0.765708 0.324412
0.010783 0.020907 0.021576
0.020102 0.019282 0.020470
0.032266 0.020183 0.021310
0.061010 0.021860 0.020546
0.125984 0.027610 0.017872
0.207478 0.047064 0.014746
0.296390 0.078618 0.014027
0.379685 0.107603 0.013253
0.447329 0.130241 0.012684
0.502431 0.148371 0.012227
0.543690 0.161826 0.012062
0.575502 0.172303 0.011693
0.602169 0.181004 0.011493
0.625413 0.188397 0.011182
0.645723 0.195158 0.011115
0.660692 0.199864 0.011180
0.014089 0.032228 0.032425
0.021832 0.031096 0.031109
0.036504 0.029957 0.028765
0.058948 0.030456 0.026257
0.111987 0.034772 0.021572
0.186325 0.049612 0.017545
0.275358 0.076683 0.014338
0.358984 0.104001 0.012418
0.429319 0.127144 0.011556
0.488658 0.146455 0.011230
0.533257 0.160900 0.011159
0.566538 0.171517 0.010918
0.595097 0.180932 0.011030
0.620293 0.188740 0.010970
0.642133 0.195872 0.010921
0.658195 0.201143 0.011047
0.020176 0.048140 0.045008
0.029905 0.046369 0.042282
0.038967 0.047599 0.040956
0.063437 0.047222 0.033859
0.108809 0.049775 0.025765
0.173188 0.058244 0.019710
0.255701 0.078570 0.016131
0.339657 0.102962 0.013623
0.411765 0.125328 0.012319
0.474119 0.145189 0.011767
0.524185 0.161187 0.011489
0.560668 0.172797 0.011164
0.591100 0.182631 0.011006
0.618877 0.191313 0.010833
0.642581 0.198774 0.010641
0.659334 0.204286 0.010679
0.026017 0.066072 0.057973
0.036151 0.062802 0.052842
0.047210 0.066234 0.052096
0.066564 0.070464 0.048795
0.116328 0.073376 0.036190
0.176296 0.079654 0.023031
0.252565 0.094391 0.017924
0.332437 0.113350 0.014646
0.404469 0.131542 0.012662
0.468271 0.149117 0.011721
0.519866 0.164422 0.011262
0.558222 0.176213 0.010858
0.590012 0.186181 0.010450
0.619169 0.195119 0.010203
0.644082 0.202843 0.010128
0.661883 0.208313 0.010274
0.029828 0.091952 0.075736
0.044450 0.087698 0.068953
0.056172 0.093018 0.069257
0.080179 0.100207 0.067273
0.117989 0.108986 0.062244
0.188780 0.116912 0.035860
0.266618 0.128051 0.020159
0.340500 0.140749 0.015922
0.408082 0.153047 0.013061
0.469673 0.164800 0.011656
0.521376 0.175413 0.011057
0.558965 0.183665 0.010760
0.591085 0.192673 0.010408
0.620929 0.201181 0.010173
0.646678 0.208951 0.010099
0.665913 0.214572 0.010176
0.036828 0.128059 0.103464
0.053223 0.123637 0.095737
0.067393 0.129881 0.096113
0.088690 0.137275 0.095314
0.127052 0.148514 0.090830
0.190232 0.163963 0.078514
0.288636 0.180025 0.027716
0.365239 0.190890 0.016369
0.429603 0.198599 0.013041
0.488290 0.205499 0.010958
0.537133 0.208740 0.009961
0.572082 0.208133 0.009915
0.601024 0.209052 0.009893
0.628876 0.213406 0.009726
0.654085 0.219543 0.009745
0.674525 0.225103 0.009655
0.046499 0.178116 0.141935
0.067074 0.174010 0.132210
0.080672 0.182252 0.134621
0.100391 0.191157 0.135675
0.133010 0.200991 0.134916
0.194514 0.218253 0.131015
0.289112 0.240636 0.100008
0.396527 0.261069 0.022158
0.463801 0.265920 0.009678
0.519806 0.268708 0.008467
0.565661 0.268341 0.008029
0.599595 0.263049 0.007865
0.626926 0.255260 0.007896
0.650148 0.247569 0.008193
0.670121 0.243067 0.008877
0.689310 0.244802 0.008715
0.065430 0.241990 0.192570
0.084613 0.238855 0.183338
0.098113 0.246939 0.185234
0.118895 0.255379 0.184323
0.148071 0.263458 0.181005
0.195627 0.272976 0.180796
0.279467 0.291822 0.171868
0.395530 0.319573 0.108868
0.500241 0.341726 0.018306
0.556341 0.343343 0.003170
0.600921 0.342482 0.002993
0.634480 0.337342 0.003531
0.662390 0.328144 0.004571
0.683826 0.314600 0.005444
0.700359 0.297166 0.005869
0.714225 0.286082 0.006644
0.087375 0.306706 0.244312
0.106796 0.305775 0.236798
0.121051 0.313625 0.238832
0.140433 0.321508 0.238196
0.169574 0.329044 0.232427
0.209622 0.336015 0.227498
0.276563 0.343829 0.228123
0.376751 0.362549 0.204193
0.493268 0.394858 0.120423
0.591212 0.418577 0.021395
0.631913 0.415993 0.001085
0.665017 0.411163 0.000124
0.695419 0.404109 0.000693
0.720688 0.393761 0.001047
0.738841 0.378953 0.002233
0.751539 0.361344 0.002916
0.112092 0.375207 0.299096
0.133393 0.376023 0.292733
0.146231 0.383123 0.294731
0.166182 0.390457 0.293297
0.193761 0.397442 0.287302
0.233012 0.403953 0.278389
0.289130 0.409622 0.275261
0.364886 0.414565 0.271272
0.463920 0.430733 0.234999
0.575235 0.462288 0.141166
0.665152 0.486282 0.034212
0.691094 0.478533 0.004125
0.721785 0.472443 0.000020
0.749092 0.464762 0.000034
0.772687 0.454538 0.000038
0.789986 0.442253 0.000280
0.138041 0.445246 0.355169
0.162488 0.447721 0.349471
0.175761 0.453556 0.350237
0.194391 0.459437 0.348608
0.222033 0.465204 0.341762
0.259171 0.470781 0.330899
0.306014 0.475874 0.323270
0.370216 0.479482 0.321929
0.445694 0.480034 0.313017
0.536799 0.490375 0.264467
0.640784 0.517215 0.160880
0.721718 0.540993 0.057015
0.744676 0.531521 0.011697
0.771060 0.523916 0.000024
0.799177 0.516424 0.000000
0.821752 0.509078 0.000000
0.163523 0.507801 0.404775
0.192599 0.512050 0.399337
0.205075 0.516503 0.399089
0.223292 0.520979 0.396221
0.249476 0.525369 0.388420
0.283108 0.529664 0.376572
0.324817 0.533830 0.365585
0.378423 0.536087 0.362196
0.441129 0.536073 0.361690
0.511451 0.532466 0.348331
0.594099 0.537426 0.288589
0.690623 0.562805 0.187818
0.775104 0.589762 0.083351
0.794574 0.578715 0.021532
0.819698 0.568195 0.000001
0.844944 0.562090 0.000000
0.188816 0.566328 0.451028
0.220865 0.570895 0.444640
0.232019 0.574205 0.443745
0.248363 0.577563 0.440599
0.270968 0.580996 0.434280
0.302521 0.584394 0.421183
0.339547 0.587540 0.407647
0.383773 0.589336 0.400281
0.438042 0.589387 0.399068
0.497172 0.586015 0.398121
0.566204 0.580375 0.378090
0.646805 0.583145 0.314192
0.745670 0.611951 0.218460
0.827574 0.635962 0.111526
0.844182 0.619579 0.026232
0.864971 0.609644 0.000002
0.210744 0.619422 0.492850
0.244806 0.623397 0.485482
0.254041 0.625659 0.484443
0.268500 0.628067 0.481222
0.289774 0.630629 0.474435
0.318169 0.633190 0.463261
0.351229 0.636016 0.449253
0.388578 0.638537 0.438353
0.434680 0.639241 0.432975
0.487633 0.638265 0.432878
0.548802 0.634205 0.433410
0.620862 0.629281 0.408291
0.703220 0.631782 0.340826
0.807200 0.660918 0.236884
0.879013 0.674168 0.119469
0.889261 0.656964 0.025945
0.228136 0.671957 0.535672
0.261413 0.676057 0.529083
0.268984 0.677778 0.528188
0.281512 0.679871 0.525672
0.300319 0.682270 0.520830
0.325926 0.684784 0.511998
0.358384 0.687788 0.498109
0.394163 0.690611 0.483644
0.431483 0.692721 0.476070
0.476608 0.693643 0.471054
0.529017 0.692907 0.469900
0.593655 0.688070 0.473051
0.668304 0.681617 0.447732
0.750345 0.680675 0.376865
0.869232 0.719361 0.280796
0.930648 0.724581 0.172689
0.246409 0.715652 0.570497
0.278538 0.720900 0.565320
0.283289 0.722020 0.564842
0.292471 0.723705 0.563271
0.309033 0.725927 0.559270
0.331528 0.728672 0.553063
0.364629 0.731739 0.540714
0.398599 0.735382 0.526943
0.433711 0.739213 0.515243
0.472949 0.741847 0.509575
0.518021 0.743971 0.506639
0.574226 0.744599 0.506238
0.640478 0.740150 0.510621
0.715660 0.734265 0.486353
0.812609 0.734486 0.403877
0.919533 0.772833 0.333499
0.013836 0.029891 0.031690
0.025093 0.026630 0.028313
0.031810 0.026901 0.031549
0.055462 0.028453 0.032714
0.124047 0.028190 0.030217
0.210611 0.036122 0.020646
0.297443 0.065524 0.015324
0.378089 0.099065 0.015226
0.446096 0.125160 0.016672
0.501500 0.145569 0.018413
0.542794 0.159969 0.019101
0.574856 0.170867 0.018939
0.601177 0.179693 0.018369
0.624463 0.187198 0.017356
0.645033 0.194020 0.016807
0.659452 0.198791 0.016752
0.016131 0.041179 0.042439
0.024683 0.039407 0.040490
0.037611 0.037145 0.038815
0.055345 0.037378 0.038976
0.111698 0.036857 0.034420
0.189012 0.042109 0.026196
0.275521 0.067748 0.020961
0.357349 0.098309 0.020285
0.427655 0.123758 0.020073
0.487817 0.144264 0.018256
0.533233 0.159277 0.016787
0.566983 0.170272 0.015789
0.595533 0.179789 0.015287
0.620686 0.187670 0.014663
0.642484 0.194844 0.014343
0.658145 0.200120 0.014451
0.018328 0.054963 0.055501
0.028178 0.053680 0.054030
0.040743 0.052207 0.052218
0.063009 0.050949 0.048868
0.109850 0.051350 0.041352
0.174973 0.058076 0.034423
0.258506 0.076608 0.028287
0.342738 0.100726 0.023598
0.415030 0.123400 0.020070
0.476778 0.143755 0.017410
0.526213 0.159979 0.015712
0.562544 0.171723 0.014765
0.593031 0.181859 0.014327
0.620371 0.190465 0.013946
0.643760 0.197949 0.013799
0.660375 0.203492 0.013977
0.025639 0.074483 0.070337
0.034908 0.073616 0.068954
0.050133 0.071437 0.065024
0.069579 0.075308 0.063311
0.117479 0.074335 0.050422
0.177941 0.078396 0.037559
0.254521 0.090967 0.030298
0.334296 0.109250 0.025134
0.406386 0.127989 0.021131
0.469851 0.146468 0.018148
0.520995 0.162278 0.016100
0.559372 0.174511 0.014839
0.591540 0.184835 0.014041
0.620641 0.193995 0.013479
0.645453 0.201722 0.013267
0.663188 0.207404 0.013492
0.028811 0.107144 0.096116
0.039839 0.103717 0.090371
0.056282 0.100013 0.082874
0.082791 0.106422 0.080361
0.123031 0.114527 0.074850
0.193054 0.118371 0.047509
0.271351 0.127033 0.032079
0.344876 0.137815 0.025739
0.411069 0.149375 0.021349
0.471609 0.161477 0.018142
0.523103 0.172803 0.015956
0.560351 0.181409 0.014708
0.592705 0.190649 0.013883
0.622534 0.199537 0.013355
0.647909 0.207431 0.013212
0.666686 0.213129 0.013457
0.031363 0.148101 0.125837
0.042658 0.142641 0.117901
0.068291 0.137831 0.108023
0.092287 0.144960 0.106410
0.132888 0.156059 0.102147
0.199746 0.170435 0.088408
0.295801 0.181232 0.037276
0.371561 0.189586 0.025038
0.434239 0.195966 0.020485
0.491289 0.202212 0.017058
0.539567 0.206384 0.014739
0.573769 0.206440 0.013807
0.602813 0.207918 0.013305
0.630435 0.212205 0.013004
0.655219 0.218413 0.012955
0.674876 0.223843 0.013019
0.034446 0.201439 0.165388
0.053077 0.194994 0.157139
0.082651 0.190475 0.144965
0.104978 0.199259 0.144760
0.140534 0.209681 0.143756
0.205594 0.226772 0.138791
0.302743 0.247976 0.102781
0.404603 0.261879 0.027648
0.470096 0.264883 0.014802
0.524119 0.266274 0.013403
0.569242 0.266088 0.012158
0.602427 0.261790 0.011014
0.629661 0.254898 0.010422
0.652592 0.247204 0.010787
0.672091 0.242392 0.011492
0.690266 0.243520 0.011498
0.047600 0.265202 0.214439
0.072481 0.257918 0.206421
0.099888 0.254904 0.194578
0.122344 0.263459 0.193165
0.153536 0.272266 0.189177
0.205365 0.282409 0.188726
0.292753 0.300982 0.177666
0.408785 0.327058 0.109501
0.506893 0.343221 0.021838
0.562500 0.343315 0.005303
0.606012 0.341629 0.004815
0.638270 0.336738 0.005189
0.665240 0.328240 0.006168
0.686522 0.314934 0.006986
0.702295 0.296923 0.007555
0.715222 0.285074 0.008555
0.071596 0.326163 0.262826
0.095157 0.320711 0.256083
0.121824 0.320374 0.246442
0.143545 0.328427 0.245094
0.174585 0.336783 0.239252
0.216923 0.344497 0.234436
0.287068 0.352929 0.235217
0.389838 0.371215 0.208418
0.505993 0.401683 0.118885
0.596887 0.419588 0.022458
0.637590 0.416130 0.001065
0.668946 0.410816 0.000391
0.697433 0.403907 0.000958
0.722807 0.393888 0.001361
0.740231 0.378352 0.002995
0.752410 0.360123 0.003829
0.098459 0.389633 0.313860
0.120069 0.387069 0.308485
0.146716 0.388081 0.300136
0.168306 0.395507 0.298399
0.197182 0.402992 0.292518
0.238473 0.410116 0.283454
0.296938 0.416385 0.280666
0.375948 0.421433 0.275423
0.477317 0.437689 0.235234
0.588563 0.469315 0.138159
0.670686 0.487591 0.033314
0.695579 0.479128 0.003323
0.723794 0.472478 0.000058
0.749623 0.464362 0.000048
0.772478 0.453237 0.000063
0.789828 0.439931 0.000752
0.125087 0.453116 0.365236
0.145183 0.453777 0.361515
0.174831 0.456521 0.353984
0.195119 0.462518 0.352014
0.223791 0.468668 0.345258
0.261997 0.474698 0.334393
0.310705 0.480206 0.326864
0.377298 0.484163 0.325825
0.456856 0.485543 0.315783
0.551142 0.497162 0.263197
0.655392 0.524967 0.155093
0.727153 0.542918 0.055404
0.747145 0.531934 0.011392
0.771983 0.523726 0.000031
0.799040 0.515238 0.000000
0.821099 0.506931 0.000000
0.149261 0.510034 0.411062
0.170054 0.513819 0.408910
0.203569 0.518093 0.401546
0.223356 0.522840 0.398460
0.249789 0.527557 0.391143
0.284479 0.532234 0.379358
0.327431 0.536780 0.368506
0.382871 0.539771 0.365496
0.448917 0.540558 0.365397
0.523570 0.538749 0.351143
0.608904 0.545298 0.287509
0.704177 0.570668 0.183026
0.778725 0.591239 0.083074
0.796818 0.579226 0.020316
0.821140 0.567815 0.000005
0.845663 0.560896 0.000000
0.171596 0.565991 0.456279
0.194272 0.570850 0.453986
0.230113 0.575212 0.445745
0.248354 0.578849 0.442204
0.271287 0.582612 0.436164
0.303274 0.586358 0.423477
0.341250 0.590163 0.410095
0.386850 0.592515 0.403015
0.442905 0.593463 0.402584
0.505239 0.591554 0.402767
0.576714 0.587357 0.381331
0.658375 0.590772 0.315974
0.754837 0.618446 0.219212
0.829783 0.637250 0.111876
0.846906 0.620182 0.023245
0.867892 0.609735 0.000042
0.190959 0.618042 0.498039
0.215500 0.622568 0.494848
0.251792 0.626421 0.486267
0.267742 0.629092 0.482861
0.289031 0.631879 0.476453
0.318184 0.634815 0.465329
0.352052 0.638097 0.451475
0.389835 0.641205 0.440995
0.437167 0.642734 0.436007
0.491101 0.642592 0.436242
0.553619 0.639566 0.438086
0.626494 0.635138 0.413077
0.708795 0.637453 0.345536
0.811749 0.665650 0.242990
0.881979 0.675440 0.116460
0.892708 0.657877 0.021785
0.209238 0.670660 0.540825
0.230075 0.674271 0.537580
0.266076 0.678531 0.530107
0.280135 0.681035 0.527552
0.298436 0.683752 0.523358
0.323371 0.686562 0.515534
0.356396 0.689928 0.502057
0.394021 0.693529 0.487182
0.431794 0.696284 0.479388
0.477797 0.697930 0.474730
0.531218 0.697922 0.473595
0.596962 0.693730 0.477799
0.673427 0.687872 0.453328
0.757141 0.687519 0.382297
0.875247 0.725770 0.288666
0.936271 0.728383 0.172860
0.226323 0.713237 0.574993
0.246744 0.716860 0.571764
0.280120 0.722333 0.566359
0.290439 0.724530 0.564975
0.306104 0.727066 0.561698
0.328451 0.730253 0.556227
0.362353 0.733769 0.544229
0.396549 0.737755 0.530896
0.432654 0.742313 0.518776
0.473074 0.745624 0.513108
0.518746 0.748257 0.510290
0.575711 0.749563 0.509993
0.644383 0.745744 0.515158
0.722638 0.740758 0.491342
0.820127 0.742051 0.409999
0.926057 0.781773 0.346809
0.014898 0.042524 0.051941
0.026372 0.037055 0.044931
0.033839 0.036048 0.046111
0.051908 0.037367 0.050209
0.119039 0.035334 0.049790
0.212213 0.032322 0.039223
0.301974 0.052041 0.025832
0.382028 0.084298 0.019268
0.449334 0.114281 0.017567
0.505113 0.137871 0.017753
0.545585 0.154757 0.018776
0.576540 0.167280 0.020219
0.602329 0.177109 0.021783
0.624511 0.185456 0.022998
0.644607 0.192565 0.023670
0.658680 0.197462 0.023785
0.015926 0.054703 0.063069
0.024202 0.051005 0.058878
0.038729 0.047429 0.054352
0.053453 0.047527 0.056993
0.107527 0.045407 0.054144
0.192217 0.040904 0.043718
0.282409 0.055333 0.029996
0.363339 0.084652 0.023208
0.431646 0.113579 0.021968
0.490272 0.137581 0.022512
0.534861 0.155625 0.023793
0.567352 0.168286 0.024554
0.595339 0.178308 0.024112
0.620054 0.186678 0.023524
0.641911 0.193861 0.022443
0.657285 0.199120 0.022190
0.018240 0.068185 0.075441
0.026697 0.065510 0.072442
0.039162 0.063540 0.069686
0.062027 0.061607 0.067907
0.108298 0.060257 0.062246
0.181081 0.058739 0.052288
0.267932 0.068707 0.039663
0.350620 0.092086 0.031635
0.421195 0.117221 0.029306
0.480661 0.140094 0.029337
0.528582 0.158029 0.027470
0.564086 0.170510 0.024324
0.594282 0.180838 0.021859
0.621136 0.189497 0.020255
0.644273 0.197020 0.019433
0.660355 0.202525 0.019399
0.021444 0.090153 0.092220
0.029824 0.088814 0.090749
0.043453 0.087439 0.088847
0.071960 0.086220 0.086356
0.117055 0.082713 0.076753
0.180382 0.082941 0.063109
0.259957 0.092576 0.051809
0.340453 0.108674 0.043858
0.412454 0.126475 0.038302
0.474787 0.144457 0.033404
0.524877 0.160661 0.028450
0.562077 0.173145 0.023971
0.593745 0.183751 0.021135
0.622550 0.193177 0.019418
0.647234 0.200947 0.018568
0.664725 0.206836 0.018497
0.025100 0.119332 0.113012
0.033804 0.120172 0.113573
0.053584 0.120456 0.112825
0.087945 0.117596 0.105308
0.127280 0.124031 0.100606
0.195384 0.122656 0.074655
0.276052 0.127854 0.055908
0.350505 0.135995 0.045191
0.416780 0.146285 0.038327
0.476472 0.158282 0.033340
0.526798 0.170031 0.028672
0.563178 0.179356 0.024117
0.595032 0.188780 0.020921
0.625007 0.198238 0.019078
0.650647 0.206279 0.018148
0.669066 0.212121 0.018065
0.020282 0.167948 0.150755
0.029356 0.168683 0.149473
0.054732 0.164849 0.142391
0.095531 0.157405 0.127539
0.137372 0.167488 0.124356
0.205716 0.180480 0.112733
0.303118 0.185279 0.061878
0.379758 0.189793 0.044720
0.442204 0.193395 0.036189
0.497719 0.198298 0.030727
0.544241 0.202316 0.026855
0.576862 0.203075 0.023536
0.604810 0.205243 0.020615
0.632277 0.209996 0.018952
0.657214 0.216628 0.018189
0.676211 0.222224 0.017941
0.017970 0.227813 0.197145
0.032676 0.227396 0.192761
0.064414 0.217635 0.179105
0.107280 0.211309 0.162078
0.145382 0.221932 0.160501
0.212927 0.239053 0.156341
0.315182 0.258399 0.120170
0.415819 0.265950 0.045960
0.481097 0.265049 0.028511
0.533578 0.264125 0.025313
0.576932 0.262578 0.022375
0.608580 0.258547 0.019471
0.634249 0.252724 0.016690
0.656035 0.245806 0.015736
0.675446 0.241544 0.015768
0.692500 0.242304 0.015634
0.024110 0.292133 0.245877
0.048053 0.287328 0.236770
0.085252 0.277329 0.223810
0.124368 0.274049 0.207113
0.158671 0.283239 0.202053
0.215192 0.294668 0.201436
0.306203 0.313119 0.191267
0.422213 0.337217 0.124273
